X:28
T:O dear what can the matter be. MBe.28
S:Matthew Betham MS, Towcett Cumbria, 1815
O:England;Cumbria;Towcett
Z:VMP – Hugh Taylor, 2012
M:6/8
L:1/8
Q:3/8=100
R:.Jig
N:NB-Symbol written like a volta bracket, but with no number
K:G
d3 d3|dBg dBG|c3 c3|cAc cBA|
d3 d3|dBg dBG|EGc BcA|G3″^NB”:|
|:d2|dBc dBc|dBg dBG|cAB cAB|cAB cBA|
dBc dBc|dBg dBG|EGc BcA|G4:|

